src/basic/100/u1F5A5-computer.svg

<svg width="119" height="128" viewBox="0 0 119 128" fill="none" xmlns="http://www.w3.org/2000/svg">
<path fill-rule="evenodd" clip-rule="evenodd" d="M59,19h-56c-1.10457,0 -2,0.8954 -2,2v68c0,1.1046 0.89543,2 2,2h56v1h-14.5v11h14.5v1h-25c-1.1046,0 -2,0.895 -2,2v1c0,1.105 0.8954,2 2,2h25v1h-25c-1.6569,0 -3,-1.343 -3,-3v-1c0,-1.657 1.3431,-3 3,-3h9.5v-11h-40.5c-1.65685,0 -3,-1.3431 -3,-3v-68c0,-1.6569 1.34315,-3 3,-3h56zM59,22h-55v63h55v1h-55c-0.55228,0 -1,-0.4477 -1,-1v-63c0,-0.5523 0.44772,-1 1,-1h55zM59.01,22v-1h54.99c0.552,0 1,0.4477 1,1v63c0,0.5523 -0.448,1 -1,1h-54.99v-1h54.99v-63zM59.01,91h56.229c1.105,0 2,-0.8954 2,-2v-68c0,-1.1046 -0.895,-2 -2,-2h-56.229v-1h56.229c1.657,0 3,1.3431 3,3v68c0,1.6569 -1.343,3 -3,3h-40.739v11h9.4999c1.6568,0 3,1.343 3,3v1c0,1.657 -1.3432,3 -3,3h-24.9899v-1h24.9899c1.1046,0 2,-0.895 2,-2v-1c0,-1.105 -0.8954,-2 -2,-2h-24.9899v-1h14.49v-11h-14.49z" fill="black"/>
</svg>

<svg width="119" height="128" viewBox="0 0 119 128" fill="none" xmlns="http://www.w3.org/2000/svg">
<path fill-rule="evenodd" clip-rule="evenodd" d="M59 18L3 18C1.34315 18 0 19.3431 0 21V89C0 90.6569 1.34315 92 3 92H43.5V103H34C32.3431 103 31 104.343 31 106V107C31 108.657 32.3431 110 34 110H59V109H34C32.8954 109 32 108.105 32 107V106C32 104.895 32.8954 104 34 104H59V103H44.5V92H59V91H3C1.89543 91 1 90.1046 1 89V21C1 19.8954 1.89543 19 3 19H59V18ZM59 21H4C3.44772 21 3 21.4477 3 22V85C3 85.5523 3.44772 86 4 86H59V85H4V22H59V21ZM59.01 22V21H114C114.552 21 115 21.4477 115 22V85C115 85.5523 114.552 86 114 86H59.01V85H114V22H59.01ZM59.01 91H115.239C116.344 91 117.239 90.1046 117.239 89V21C117.239 19.8954 116.344 19 115.239 19H59.01V18H115.239C116.896 18 118.239 19.3431 118.239 21V89C118.239 90.6569 116.896 92 115.239 92H74.5V103H83.9999C85.6567 103 86.9999 104.343 86.9999 106V107C86.9999 108.657 85.6567 110 83.9999 110H59.01V109H83.9999C85.1045 109 85.9999 108.105 85.9999 107V106C85.9999 104.895 85.1045 104 83.9999 104H59.01V103H73.5V92H59.01V91Z" fill="black"/>
</svg>
